src/assets/exit.svg

<?xml version="1.0" ?>
<svg height="48" viewBox="0 0 48 48" width="48" xmlns="http://www.w3.org/2000/svg">
<path d="M0 0h48v48h-48z" fill="none"/><path d="M20.17 31.17l2.83 2.83 10-10-10-10-2.83 2.83 5.17 5.17h-19.34v4h19.34l-5.17 5.17zm17.83-25.17h-28c-2.21 0-4 1.79-4 4v8h4v-8h28v28h-28v-8h-4v8c0 2.21 1.79 4 4 4h28c2.21 0 4-1.79 4-4v-28c0-2.21-1.79-4-4-4z"/>
</svg>

<?xml version="1.0" ?><svg height="48" viewBox="0 0 48 48" width="48" xmlns="http://www.w3.org/2000/svg"><path d="M0 0h48v48H0z" fill="none"/><path d="M20.17 31.17L23 34l10-10-10-10-2.83 2.83L25.34 22H6v4h19.34l-5.17 5.17zM38 6H10c-2.21 0-4 1.79-4 4v8h4v-8h28v28H10v-8H6v8c0 2.21 1.79 4 4 4h28c2.21 0 4-1.79 4-4V10c0-2.21-1.79-4-4-4z"/></svg>
